X: 8
T: Lord McDonald's Reel
%R: reel
B: Name "Kauntze's Collection of the most favorite Dances, Reels, Waltzes, &c."
F: http://imslp.org/wiki/Kauntze%27s_Collection_of_Dances,_Reels,_Waltzes_etc._%28Various%29
Z: 2014 John Chambers <jc:trillian.mit.edu>
N: The rhythms are mismatched at the strains' boundaries; fixed.
M: C
L: 1/8
K: G
% - - - - - - - - - - - - - - - - - - - - - - - - - - - - -
V: 1
B/c/ |\
d3e dBgB | dBgB aAAB | d3e dBgd | ecBA BGG :|
B |\
(DG).B.G (AG)(BG) | (DG).B.G (AG).E.A | (DG).B.G (AG).B.G | (DC).B,.A, (B,G,).G,.A |
(DG).B.G (AG).B.G | (DG).B.G (AG).E.A | (BA).G.F (GF).E.D | DEGA BGG |]
% - - - - - - - - - - - - - - - - - - - - - - - - - - - - -
V: 2 clef=bass middle=d
z |\
g2g2 g2g2 | g2g2 d'2d'2 | g2g2 g2g2 | d'2d'2 g2g :|
z |\
g2g2 g2g2 | g2g2 d2d2 | g2g2 g2g2 | d2d2 G2G2 |
g2g2 g2g2 | g2g2 g2g2 | g2g2 g2g2 | g2g2 G2G |]
% - - - - - - - - - - Dance description - - - - - - - - - -
%%begintext align
%% First Cu: foot it and lead down the middle, up again, Allemande
%% and swing Corners.
%%endtext
